X:4
% %NRChange 2010-04-19
T: Annas Visa
C: Leif G\"oras
O: Sweden
R: Waltz
M: 3/4
L: 1/4
K: A
Q: 1/4=140
%P:A
[V:1] c |"A" E2 E |"E" E E3/ D/ |"A" C E A | c2 A/G/ |"D" F B c |"Bm" d3/ c/ B/A/ |"E" A G3/ F/ | F E
[V:2] E | C2 A, | G, G,3/ B,/ | A, C E | A2 F/E/ | D D C | B,3/ C/ D/F/ | F E3/ A,/ | A, G,
[V:1] c |"A" E2 E |"E" E E3/ D/ |"A" C E A | c d e |"D" d F3/ A/ |"E7" G A B |"A" (A3 | A2) :|
[V:2] E | C2 A, | G, G,3/ B,/ | A, C E | A, A =G | F D3/ B,/ | B, C D | ( C3 | C2) :|
%P:B
[V:1] E/E/ |"A" E/c/  c E/E/ | E/A/  A/c/ c/e/ |"D"  e d3/ c/ |"Bm" c B3/ A/ |"E" A G3/ F/ |
[V:2] E/D/ |C/E/ A E/D/ | C/E/ E/A/ A/c/ | c/d/ F3/ E/ | E/F/ D3/ C/ | C/D/ B,3/ A,/ |
[V:1] "E7"F E d |"D" d2 c |"A"c2  c/d/ | e E A |"A7" c d e |"D" f d c |
[V:2] A, G, F | F2 A | A2 A/B/ | c C E | A B c | d F E |
[V:1] "Bm"B c d |"A" c E3/ A/ |"E7" G A B |"A" (A3 | A2) :|
[V:2] D E F | E C3/ C/ | B, C D | (C3 | C2 ) :|

